svgs/regular/archway.svg

<svg xmlns="http://www.w3.org/2000/svg" viewBox="0 0 512 512"><!--! Font Awesome Pro 6.3.0 by @fontawesome - https://fontawesome.com License - https://fontawesome.com/license (Commercial License) Copyright 2023 Fonticons, Inc. --><path d="M0 56C0 42.7 10.7 32 24 32H56 456h24c13.3 0 24 10.7 24 24s-10.7 24-24 24V432h8c13.3 0 24 10.7 24 24s-10.7 24-24 24H456 424 360c-13.3 0-24-10.7-24-24V336c0-44.2-35.8-80-80-80s-80 35.8-80 80V456c0 13.3-10.7 24-24 24H88 56 24c-13.3 0-24-10.7-24-24s10.7-24 24-24h8V80H24C10.7 80 0 69.3 0 56zM80 80v32H432V80H80zm0 80V432h8 40V336c0-70.7 57.3-128 128-128s128 57.3 128 128v96h40 8V160H80z"/></svg>

<svg xmlns="http://www.w3.org/2000/svg" viewBox="0 0 512 512"><!--! Font Awesome Pro 6.2.0 by @fontawesome - https://fontawesome.com License - https://fontawesome.com/license (Commercial License) Copyright 2022 Fonticons, Inc. --><path d="M0 56C0 42.75 10.75 32 24 32H480C493.3 32 504 42.75 504 56C504 69.25 493.3 80 480 80V432H488C501.3 432 512 442.7 512 456C512 469.3 501.3 480 488 480H336V336C336 291.8 300.2 256 256 256C211.8 256 176 291.8 176 336V480H24C10.75 480 0 469.3 0 456C0 442.7 10.75 432 24 432H32V80H24C10.75 80 0 69.25 0 56zM80 112H432V80H80V112zM80 160V432H128V336C128 265.3 185.3 208 256 208C326.7 208 384 265.3 384 336V432H432V160H80z"/></svg>
